X:1
T:Title
%%score { ( 1 3 ) | ( 2 4 ) }
L:1/8
Q:1/4=108
M:4/4
K:Ab
V:1 treble nm="Grand Piano"
V:3 treble 
V:2 bass 
V:4 bass 
V:1
 [EA]4 [Ac]2 [ce]2 | [Be]3 [Bd] [Bd]4 | [GB]4 [Bd]2 [df]2 | [df]3 [ce] [ce]4 | [Ac]4 [Gc]2 [_Gc]2 | %5
w: Ira~Ornig~Hoffman * *|||||
 B4 e4 | [Af]4 [Ac]2 [A=d]2 | e4- [de]2 z2 | [EA]4 [Ac]2 [Ae]2 | [Ge]3 [Gd] [Gd]4 | %10
w: |||||
 [GB]4 [Bd]2 [df]2 | [df]3 [ce] [ce]4 | [=Ac]4 [cf]2 [ce]2 | [ce]2 [Bd]2 [Ac]2 [AB]2 | z4 [Bd]4 | %15
w: |||||
 [Ec]6 z2 |] %16
w: |
V:2
 [A,,C,]4 [A,,E,]2 [A,,E,]2 | [G,,E,]3 [G,,E,] [G,,E,]4 | E,4 E,2 [E,G,]2 | %3
 [A,,A,]3 [A,,A,] [A,,A,]4 | [A,,E,]4 [A,,E,]2 [=A,,E,]2 | [B,,E,]8 | [B,,=D,]4 [B,,F,]2 [B,,F,]2 | %7
 z4 B,2 z2 | [A,,C,]4 [A,,E,]2 [C,E,]2 | [B,,E,]3 [B,,E,] [B,,E,G,]4 | E,4 E,2 [E,G,]2 | %11
 [A,,A,]3 [A,,A,] [A,,A,]4 | F,4 [F,=A,]2 F,2 | [B,,F,]2 [B,,F,]2 [C,E,]2 [D,F,]2 | z2 A,2 E,4 | %15
 [A,,A,]6 z2 |] %16
V:3
 x8 | x8 | x8 | x8 | x8 | G8 | x8 | G4 z4 | x8 | x8 | x8 | x8 | x8 | x8 | [ce]4 z2 G,2 | x8 |] %16
V:4
 x8 | x8 | x8 | x8 | x8 | x8 | x8 | E,6 z2 | x8 | x8 | x8 | x8 | x8 | x8 | E,4 F,2 z2 | x8 |] %16

